X:3405
T:la Joupon Rouge or the Scarlet Petticoat
O:england
M:6/8
K:G
d|\
d2g BAG| A2A A2B| \
c2B A>GA| G3 DGB|\
d2g BAG| A2A A2B|
c2B AGA| G3 G2::\
d|\
dgb bag| afd d2d| \
dab c'ba| d'bg g2d|
e2e c'af| gd'b g2d| \
e2d c'2b| b3 "D.C."d2 ::\
"\& the go on"b//c'//|\
d'bg gab| c'af fga|
gab abg| f2d d2b//c'//|\
d'bg gab| c'af fga| \
gab abg| d'3 "D.C."Hd'2 :|


